assets/svg/networks/wallet_tron.svg

<svg width="36" height="36" viewBox="0 0 36 36" fill="none" xmlns="http://www.w3.org/2000/svg">
<g clip-path="url(#clip0_20004_22638)">
<rect width="36" height="36" rx="10" fill="#FF060A"/>
<g clip-path="url(#clip1_20004_22638)">
<path d="M28.7278 15.0253C27.7415 14.1597 26.3772 12.8378 25.2656 11.9004L25.2 11.8566C25.0905 11.7732 24.9671 11.7077 24.8349 11.663C22.1535 11.1882 9.68382 8.97226 9.44066 9.00026C9.37211 9.00925 9.30658 9.03284 9.24896 9.06928L9.18755 9.11621C9.11049 9.19025 9.05204 9.2799 9.0166 9.37845L9 9.41789V9.67423C10.4041 13.3911 15.9477 25.5634 17.039 28.419C17.105 28.6126 17.2299 28.9813 17.4635 29.0003H17.5158C17.6402 29.0003 18.1734 28.3299 18.1734 28.3299C18.1734 28.3299 27.6954 17.3568 28.6589 16.1879C28.7837 16.044 28.8938 15.8891 28.9876 15.7253C29.0115 15.5972 29.0002 15.4654 28.9547 15.3428C28.9092 15.2201 28.831 15.1107 28.7278 15.0253ZM20.6183 16.3034L24.6805 13.1016L27.0643 15.189L20.6183 16.3034ZM19.0415 16.094L12.0415 10.6444L23.3618 12.6284L19.0415 16.094ZM19.673 17.5224L26.834 16.4253L18.6436 25.8L19.673 17.5224ZM11.0913 11.1882L18.4531 17.1241L17.3876 25.8063L11.0913 11.1882Z" fill="white"/>
</g>
</g>
<defs>
<clipPath id="clip0_20004_22638">
<rect width="36" height="36" fill="white"/>
</clipPath>
<clipPath id="clip1_20004_22638">
<rect width="20" height="20" fill="white" transform="translate(9 9)"/>
</clipPath>
</defs>
</svg>

<svg xmlns="http://www.w3.org/2000/svg" width="36" height="36" fill="none"><g clip-path="url(#a)"><rect width="36" height="36" fill="#FF060A" rx="10"/><g clip-path="url(#b)"><path fill="#fff" d="M28.728 15.025c-.987-.865-2.35-2.187-3.462-3.125l-.066-.043a1.3 1.3 0 0 0-.365-.194C22.154 11.188 9.684 8.973 9.44 9a.5.5 0 0 0-.192.07l-.061.046a.7.7 0 0 0-.171.262L9 9.418v.256c1.404 3.717 6.948 15.89 8.039 18.745.066.194.19.562.424.581h.053c.124 0 .657-.67.657-.67s9.522-10.973 10.486-12.142q.188-.216.329-.463a.7.7 0 0 0-.033-.382.75.75 0 0 0-.227-.318m-8.11 1.278 4.063-3.201 2.383 2.087zm-1.576-.209-7-5.45 11.32 1.984zm.631 1.428 7.161-1.097-8.19 9.375zm-8.582-6.334 7.362 5.936-1.065 8.682z"/></g></g><defs><clipPath id="a"><path fill="#fff" d="M0 0h36v36H0z"/></clipPath><clipPath id="b"><path fill="#fff" d="M9 9h20v20H9z"/></clipPath></defs></svg>
